icons/svgs/chalkboard-user-solid.svg

<svg width="25" height="24" viewBox="0 0 25 24" fill="none" xmlns="http://www.w3.org/2000/svg">
<path d="M6.25 4.5C6.25 3.13281 7.34375 2 8.75 2H22.5C23.8672 2 25 3.13281 25 4.5V15.75C25 17.1562 23.8672 18.25 22.5 18.25H13.125C12.6953 17.2734 11.9531 16.4141 11.0938 15.75H15V14.5C15 13.8359 15.5469 13.25 16.25 13.25H18.75C19.4141 13.25 20 13.8359 20 14.5V15.75H22.5V4.5H8.75V6.45312C8.00781 6.02344 7.14844 5.75 6.25 5.75V4.5ZM6.25 7C7.57812 7 8.78906 7.74219 9.49219 8.875C10.1562 10.0469 10.1562 11.4922 9.49219 12.625C8.78906 13.7969 7.57812 14.5 6.25 14.5C4.88281 14.5 3.67188 13.7969 2.96875 12.625C2.30469 11.4922 2.30469 10.0469 2.96875 8.875C3.67188 7.74219 4.88281 7 6.25 7ZM5.19531 15.75H7.26562C10.1562 15.75 12.5 18.0938 12.5 20.9844C12.5 21.5312 12.0312 22 11.4453 22H1.01562C0.429688 22 0 21.5703 0 20.9844C0 18.0938 2.30469 15.75 5.19531 15.75Z" fill="black"/>
</svg>

<svg xmlns="http://www.w3.org/2000/svg" width="24" height="24" fill="currentColor" class="icon-chalkboard-user-solid" viewBox="0 0 24 24">
  <mask id="a" width="25" height="20" x="0" y="2" maskUnits="userSpaceOnUse" style="mask-type:alpha">
    <path d="M6.25 4.5c0-1.367 1.094-2.5 2.5-2.5H22.5C23.867 2 25 3.133 25 4.5v11.25c0 1.406-1.133 2.5-2.5 2.5h-9.375c-.43-.977-1.172-1.836-2.031-2.5H15V14.5c0-.664.547-1.25 1.25-1.25h2.5c.664 0 1.25.586 1.25 1.25v1.25h2.5V4.5H8.75v1.953c-.742-.43-1.602-.703-2.5-.703zm0 2.5c1.328 0 2.54.742 3.242 1.875.664 1.172.664 2.617 0 3.75C8.79 13.797 7.578 14.5 6.25 14.5c-1.367 0-2.578-.703-3.281-1.875-.664-1.133-.664-2.578 0-3.75C3.672 7.742 4.883 7 6.25 7m-1.055 8.75h2.07a5.235 5.235 0 0 1 5.235 5.234c0 .547-.469 1.016-1.055 1.016H1.015A.985.985 0 0 1 0 20.984c0-2.89 2.305-5.234 5.195-5.234"/>
  </mask>
  <g mask="url(#a)">
    <path d="M0 0h24v24H0z"/>
  </g>
</svg>
